X:1
T:Riviera, 87.87 D
T:Riviera, 87.87 D
T:Ada Rose Gibbs (1864-1905) 
T:Public Domain Courtesy of the Cyber Hymnal™
C:Ada Rose Gibbs (1864-1905)
Z:Public Domain
Z:Courtesy of the Cyber Hymnal™
%%score ( 1 2 ) ( 3 4 )
L:1/8
Q:1/4=110
M:4/4
K:Eb
V:1 treble 
V:2 treble 
V:3 bass 
V:4 bass 
V:1
 [Ge]2 [Gd]2 | [Ac]2 [Ac]2 [Ad]2 [Ac]2 | [Ac]2 [GB]2 [EG]2 [FA]2 | [GB]2 [Ac]2 [GB]2 [FA]2 | %4
 [EG]4 [Ge]2 [Gd]2 | [Ac]2 [Ac]2 [Ad]2 [Ac]2 | [Ac]2 [GB]2 [GB]2 [GB]2 | [F=A]2 [GB]2 [Ac]2 [Ad]2 | %8
 [FB]4 [FB]2 [FB]2 | [FB]2 [Fc]2 [Fd]2 [Fd]2 | [Ee]2 [EB]2 [EB]2 [Be]2 | [Ad]2 [Ac]2 [FB]2 [FA]2 | %12
 G4 G2 G2 | [EA]2 [GB]2 [Ac]2 [Ad]2 | [Be]2 B2 B2 [Be]2 | [Ae]2 [Ad]2 [Ac]2 [Ad]2 | [Ge]4 |] %17
V:2
 x4 | x8 | x8 | x8 | x8 | x8 | x8 | x8 | x8 | x8 | x8 | x8 | G4 G2 G2 | x8 | x2 B2 B2 x2 | x8 | %16
 x4 |] %17
V:3
 [E,B,]2 [E,B,]2 | [E,C]2 [E,C]2 [E,C]2 [E,D]2 | [E,E]2 [E,E]2 [E,B,]2 [E,B,]2 | %3
 [B,,B,]2 [B,,B,]2 [B,,B,]2 [B,,B,]2 | [E,B,]4 [E,B,]2 [E,B,]2 | [E,C]2 [E,C]2 [E,C]2 [E,D]2 | %6
 [E,E]2 [E,E]2 [E,E]2 [E,E]2 | [F,C]2 [F,C]2 [F,F]2 [F,F]2 | [B,D]4 [B,D]2 [B,D]2 | %9
 [A,D]2 [A,D]2 [A,B,]2 [A,B,]2 | [G,B,]2 [G,B,]2 [G,B,]2 [G,B,]2 | [F,F]2 [F,F]2 [B,D]2 [B,D]2 | %12
 [E,E]4 E2 [_DE]2 | [CE]2 [B,E]2 [A,E]2 [A,F]2 | [G,E]2 [G,E]2 [E,G]2 [E,G]2 | %15
 [B,F]2 [B,F]2 [B,F]2 [B,F]2 | [G,E]4 |] %17
V:4
 x4 | x8 | x8 | x8 | x8 | x8 | x8 | x8 | x8 | x8 | x8 | x8 | x4 E2 x2 | x8 | x8 | x8 | x4 |] %17

